X:1
T:A Santo Francesco d'Assisi
T:Giovanni Pietro Biandra
T:Source : Madrigaletti a 1, 2 e 3 voci. Libro primo---Venezia---B.Magni (Gardano)---1626. Editor : André Vierendeels (14/03/15).
T:Notes : Original clefs : C4, F4 Editorial accidentals above the staff
T:A Santo Francesco d'Assisi
T:Aria
C:Giovanni Pietro Biandra
%%score 1 2
L:1/8
Q:1/4=80
M:4/4
K:C
V:1 treble-8 nm="Tenor" snm="T"
V:2 bass nm="BC" snm="BC"
V:1
 z2 G2 cBBA | B2 BA AAAG | G2 GG AccB | c2 ce dcBB |[M:2/4] A2 A2 :: z2 c2 |[M:4/4] c2 c2 d2 d2 | %7
w: Di ro- se'o- ve s'in-|do- ra di fia me- gian- te|cri- ne la mes- sa- gier'- Au-|ro- ra con ma- nie- re di-|vi- ne,|e|qua- si'u- ni- ca|
w: Vid- de l'An- gel se-|con- do, l'E- van- ge- li- sta|San- to sa- lir lie- to'e gio-|con- do con e'in- e- ri- cio|man- to,|e|del e- ter- na|
w: Non da cli- ma stra-|nie- ro e- ran cre- d'io por-|ta- re ne da ter- re- no'im-|pe- ro quel- le gem- me be-|a- te,|ma|da the- sor Ce-|
w: Co- so for- mo di|Di- o l'o- ni- po- ten- te|ma- no tut- to fo- co- so'e|pi- o, un e- di- fi- 'hu-|ma- no,|ma|di tal gui- sa'im-|
 e2 e2 E2 FG | ABcd e2 c2 | d4 c4 | G2 AB cdef | g2 G2 A4 | G8 :| %13
w: p'ro- le sor- g'e ri-|na- sce ri- splen- dent' il|So- le,|sor- g'e ri- na- sce ri- splen-|den- te'il So-|le.|
w: lu- ce se- co'il- se-|gno por- tar- d'in- vit- to|du- ce,|se- co'l se- gno por- tar- d'in-|vit- to du-|ce.|
w: le- ste Fran- ces- co|tu ne le tue mem- bra'ha-|ne- ste,|Fran- ces- co tu ne le tue|mem- bra'ha- ve-|ste.|
w: pres- so che sem- bra|so- lo'il suo fat- tor i-|stes- so,|che sem- bra so- lo'il suo fat-|tor i- stes-|so.|
V:2
 G,4 E,2 ^F,2 | G,2 B,,2 C,2 D,2 | G,,2 E,,2 F,,2 G,,2 | C,2 A,,2 D,2 E,2 |[M:2/4] A,,4 :: F,,4 | %6
[M:4/4] E,,4 F,,2 G,,2 | C,4 C,2 _B,,2 | A,,2 F,,2 C,4 | G,,4 C,2 D,2 | E,2 D,2 C,2 A,,2 | %11
 G,,2 E,2 D,4 | G,,8 :| %13

